svgs/sharp-regular/hexagon-vertical-nft.svg

<svg xmlns="http://www.w3.org/2000/svg" viewBox="0 0 448 512"><!--! Font Awesome Pro 6.6.0 by @fontawesome - https://fontawesome.com License - https://fontawesome.com/license (Commercial License) Copyright 2024 Fonticons, Inc. --><path d="M400 356.1l0-200.3L224 55.3 48 155.9l0 200.3L224 456.7 400 356.1zM0 128L224 0 448 128l0 256L224 512 0 384 0 128zm80 32l8 0 11.9 0 3.4 11.4L128 253.7l0-77.7 0-16 32 0 0 16 0 160 0 16-16 0-8 0-11.9 0-3.4-11.4L96 258.3 96 336l0 16-32 0 0-16 0-160 0-16 16 0zm128 0l48 0 16 0 0 32-16 0-32 0 0 48 32 0 16 0 0 32-16 0-32 0 0 64 0 16-32 0 0-16 0-80 0-80 0-16 16 0zm96 0l32 0 32 0 16 0 0 32-16 0-16 0 0 144 0 16-32 0 0-16 0-144-16 0-16 0 0-32 16 0z"/></svg>

<svg xmlns="http://www.w3.org/2000/svg" viewBox="0 0 448 512"><!--! Font Awesome Pro 6.4.0 by @fontawesome - https://fontawesome.com License - https://fontawesome.com/license (Commercial License) Copyright 2023 Fonticons, Inc. --><path d="M400 356.1V155.9L224 55.3 48 155.9V356.1L224 456.7 400 356.1zM0 128L224 0 448 128V384L224 512 0 384V128zm80 32h8H99.9l3.4 11.4L128 253.7V176 160h32v16V336v16H144h-8H124.1l-3.4-11.4L96 258.3V336v16H64V336 176 160H80zm128 0h48 16v32H256 224v48h32 16v32H256 224v64 16H192V336 256 176 160h16zm96 0h32 32 16v32H368 352V336v16H320V336 192H304 288V160h16z"/></svg>
